svgs/regular/users-between-lines.svg

<svg xmlns="http://www.w3.org/2000/svg" viewBox="0 0 640 512"><!--! Font Awesome Pro 6.3.0 by @fontawesome - https://fontawesome.com License - https://fontawesome.com/license (Commercial License) Copyright 2023 Fonticons, Inc. --><path d="M24 0H616c13.3 0 24 10.7 24 24s-10.7 24-24 24H24C10.7 48 0 37.3 0 24S10.7 0 24 0zm0 464H616c13.3 0 24 10.7 24 24s-10.7 24-24 24H24c-13.3 0-24-10.7-24-24s10.7-24 24-24zM321.6 208a32 32 0 1 0 0-64 32 32 0 1 0 0 64zm-60.5 80.8c4.1-.5 8.3-.8 12.5-.8h48 48c4.2 0 8.4 .3 12.5 .8c47.1 6.1 83.5 46.4 83.5 95.2c0 17.7-14.3 32-32 32h-224c-17.7 0-32-14.3-32-32c0-11.2 1.9-22 5.5-32h0c10.5-29.7 35.3-52.8 66.1-60.9c0 0 0 0 0 0c3.9-1 7.9-1.8 11.9-2.3zM273.6 240c-19.4-14.6-32-37.8-32-64c0-44.2 35.8-80 80-80s80 35.8 80 80c0 26.2-12.6 49.4-32 64l0 0c-13.4 10-30 16-48 16s-34.6-6-48-16l0 0zM392.7 341.9c-6.8-3.8-14.7-5.9-23.1-5.9h-96c-20.9 0-38.7 13.4-45.3 32H414.9c-2.6-7.3-6.9-13.8-12.4-19c-3.7-1.7-7-4.2-9.8-7.1zM147.2 96a64 64 0 1 1 0 128 64 64 0 1 1 0-128zM96 256h96c12.2 0 23.7 3.4 33.4 9.4c-37.2 15.1-65.6 47.2-75.8 86.6H64c-17.7 0-32-14.3-32-32c0-35.3 28.7-64 64-64zm480 96H493.6c-10.3-40.1-39.6-72.6-77.7-87.4c9.4-5.5 20.4-8.6 32.1-8.6h96c35.3 0 64 28.7 64 64c0 17.7-14.3 32-32 32zM499.2 96a64 64 0 1 1 0 128 64 64 0 1 1 0-128z"/></svg>

<svg xmlns="http://www.w3.org/2000/svg" viewBox="0 0 640 512"><!--! Font Awesome Pro 6.2.0 by @fontawesome - https://fontawesome.com License - https://fontawesome.com/license (Commercial License) Copyright 2022 Fonticons, Inc. --><path d="M616 0C629.3 0 640 10.75 640 24C640 37.25 629.3 48 616 48H24C10.75 48 0 37.25 0 24C0 10.75 10.75 0 24 0H616zM616 464C629.3 464 640 474.7 640 488C640 501.3 629.3 512 616 512H24C10.75 512 0 501.3 0 488C0 474.7 10.75 464 24 464H616zM261.1 288.8C265.2 288.3 269.4 288 273.6 288H369.6C373.8 288 378 288.3 382.1 288.8C429.2 294.1 465.6 335.2 465.6 384C465.6 401.7 451.3 416 433.6 416H209.6C191.9 416 177.6 401.7 177.6 384C177.6 372.8 179.5 362 183.1 352C193.6 322.3 218.3 299.2 249.1 291.1C253 290.1 257 289.3 261.1 288.8V288.8zM392.7 341.9C385.8 338.1 377.1 336 369.6 336H273.6C252.7 336 234.9 349.4 228.3 368H414.9C412.3 360.7 407.1 354.2 402.4 348.1C398.7 347.3 395.4 344.8 392.7 341.9H392.7zM241.6 176C241.6 131.8 277.4 96 321.6 96C365.8 96 401.6 131.8 401.6 176C401.6 202.2 389 225.4 369.6 240C356.2 250 339.6 256 321.6 256C303.6 256 286.1 250 273.6 240C254.2 225.4 241.6 202.2 241.6 176V176zM321.6 208C339.3 208 353.6 193.7 353.6 176C353.6 158.3 339.3 144 321.6 144C303.9 144 289.6 158.3 289.6 176C289.6 193.7 303.9 208 321.6 208zM83.2 160C83.2 124.7 111.9 96 147.2 96C182.5 96 211.2 124.7 211.2 160C211.2 195.3 182.5 224 147.2 224C111.9 224 83.2 195.3 83.2 160zM192 256C204.2 256 215.7 259.4 225.4 265.4C188.2 280.5 159.8 312.6 149.6 352H64C46.33 352 32 337.7 32 320C32 284.7 60.65 256 96 256H192zM576 352H493.6C483.2 311.9 453.1 279.4 415.9 264.6C425.3 259.1 436.3 256 448 256H544C579.3 256 608 284.7 608 320C608 337.7 593.7 352 576 352zM435.2 160C435.2 124.7 463.9 96 499.2 96C534.5 96 563.2 124.7 563.2 160C563.2 195.3 534.5 224 499.2 224C463.9 224 435.2 195.3 435.2 160V160z"/></svg>
